src/images/icons/icons_separatly/scroll_up.svg

<svg width="24" height="24" viewBox="0 0 24 24" fill="none" xmlns="http://www.w3.org/2000/svg">
<path d="M3.37495 14.7L11.775 6.275C11.875 6.175 11.9833 6.10433 12.0999 6.063C12.2166 6.021 12.3416 6 12.4749 6C12.6083 6 12.7333 6.021 12.8499 6.063C12.9666 6.10433 13.075 6.175 13.175 6.275L21.6 14.7C21.8333 14.9333 21.95 15.225 21.95 15.575C21.95 15.925 21.825 16.225 21.575 16.475C21.325 16.725 21.0333 16.85 20.7 16.85C20.3666 16.85 20.075 16.725 19.825 16.475L12.4749 9.125L5.12495 16.475C4.89161 16.7083 4.60428 16.825 4.26295 16.825C3.92095 16.825 3.62495 16.7 3.37495 16.45C3.12495 16.2 2.99995 15.9083 2.99995 15.575C2.99995 15.2417 3.12495 14.95 3.37495 14.7Z" fill="white"/>
</svg>

<svg xmlns="http://www.w3.org/2000/svg" width="24" height="24" fill="none"><path fill="#fff" d="m3.375 14.7 8.4-8.425c.1-.1.208-.17.325-.212A1.1 1.1 0 0 1 12.475 6c.133 0 .258.021.375.063a.872.872 0 0 1 .325.212L21.6 14.7c.233.233.35.525.35.875s-.125.65-.375.9a1.2 1.2 0 0 1-.875.375 1.2 1.2 0 0 1-.875-.375l-7.35-7.35-7.35 7.35c-.233.233-.52.35-.862.35-.342 0-.638-.125-.888-.375A1.2 1.2 0 0 1 3 15.575a1.2 1.2 0 0 1 .375-.875Z"/></svg>
